!!!!SEGMENT: pl-sa--81-a-ii-21--002_anonim--ad-te-cor-volat.krn
!!!cenid: 17xx:699
!!!COM: Anonim
!!!COM-rismid: pe30004985
!!!CDT:
!!!CNT:
!!!OTL: Ad te cor volat
!!!PDT:
!!!AGN: Sacred
!!!SMS-siglum: PL-SA
!!!SMS-shelfmark: 81/A II 21
!!!SMS-shelfwork: 002 W
!!!SMS-variant:
!!!SMS-altvar:
!!!NIFC-rismid: 1001041172
!!!URL-scan: http://bc.bdsandomierz.pl/dlibra/publication/1359/edition/1327/content
!!!ONB-nifc:
!!!key:
**kern	**kern	**kern	**kern	**text
*part4	*part3	*part2	*part1	*part1
*	*group1	*group1	*	*
*staff4	*staff3	*staff2	*staff1	*staff1
*Iempty	*Ivioln	*Ivioln	*Ivox	*
*I"P4	*I"Violino 2do	*I"Violino 1mo	*I"Canto	*
*I'org	*I'vl 2	*I'vl 1	*I'S	*
*clefF4	*clefG2	*clefG2	*clefC1	*
*Trd0c0	*	*	*	*
*k[f#c#g#]	*k[f#c#g#]	*k[f#c#g#]	*k[f#c#g#]	*
*A:	*A:	*A:	*A:	*
*M4/4	*M4/4	*M4/4	*M4/4	*
*met(c)	*met(c)	*met(c)	*met(c)	*
*>[A,B,A]	*>[A,B,A]	*>[A,B,A]	*>[A,B,A]	*
=1	=1	=1	=1	=1
*>A	*>A	*>A	*>A	*
!LO:TX:a:t=Concerto 2do de Sanctis	!LO:TX:a:t=Concerto 2do	!LO:TX:a:t=Concerto 2do	!LO:TX:a:t=Concerto 2do de Sanctis	!
!LO:TX:a:t=P:problem=brak na zwy głosu, na stronie tytułowej "Organo"	!	!	!	!
!LO:TX:a:t=P:problem=krzyżyki GG# G#(jeden nad drugim) FF# C# F#	!LO:TX:a:t=P:problem=krzyżyki g# ff#(jeden nad drugim) f3 cc# gg#(jeden nad drugim)	!LO:TX:a:t=P:problem=krzyżyki g# ff#(jeden nad drugim) f# cc# gg#(jeden nad drugim)	!LO:TX:a:t=P:problem=krzyżyki dd#(omyłkowo) g# f#(po metrum	!
4A\	4cc#\	4ee\	00r	.
4d\	16dd\LL	16ff#\LL	.	.
.	16cc#\	16ee\	.	.
.	16dd\	16ff#\	.	.
.	16b\JJ	16dd\JJ	.	.
!	!LO:TX:a:t=c	!	!	!
4A\	4cc#\	8ee\L	.	.
.	.	8a\J	.	.
8r	8r	8r	.	.
8AA/	8g#/	8cc#\	.	.
=2	=2	=2	=2	=2
4D\	8d/L	8b/L	.	.
.	8c#/J	8a/J	.	.
4E\	4B/	4g#/	.	.
4AA/	4c#/	4a/	.	.
4r	4r	4r	.	.
=3	=3	=3	=3	=3
4E\	4g#/	4b\	.	.
4A\	4a/	16cc#\LL	.	.
.	.	16b\	.	.
.	.	16cc#\	.	.
.	.	16a\JJ	.	.
4E\	4g#/	8g#/	.	.
.	.	4.ee\	.	.
4r	4r	.	.	.
=4	=4	=4	=4	=4
4E\	4g#/	4b\	.	.
4A\	4a/	16cc#\LL	.	.
.	.	16b\	.	.
.	.	16cc#\	.	.
.	.	16a\JJ	.	.
4E\	4g#/	8b\	.	.
.	.	4.ee\	.	.
4r	4r	.	.	.
=5	=5	=5	=5	=5
4E\	4g#/	4b\	0r	.
4A\	4a/	16cc#\LL	.	.
.	.	16b\	.	.
.	.	16cc#\	.	.
.	.	16a\JJ	.	.
4E\	4g#/	8b\L	.	.
.	.	16ee\L	.	.
.	.	16dd#X\JJ	.	.
8r	8r	8ee\L	.	.
8A\	8a/	8ff#\J	.	.
=6	=6	=6	=6	=6
4B\	4g#/	4b\	.	.
!	!	!LO:TX:a:t=P:problem=# above	!	!
4BB/	4f#/	4dd#X\	.	.
4E\	4e/	4ee\	.	.
4r	4r	4r	.	.
=7	=7	=7	=7	=7
00r	4cc#\	4ee\	1r	.
.	16dd\LL	16ff#\LL	.	.
.	16cc#\	16ee\	.	.
.	16dd\	16ff#\	.	.
.	16b\JJ	16dd\JJ	.	.
.	4cc#\	8ee\L	.	.
.	.	8a\J	.	.
.	8r	8r	.	.
.	8ee\	8cc#\	.	.
!	!	!LO:LB:g=original	!	!
=8	=8	=8	=8-	=8
.	8dd\L	8b/L	2r	.
.	8cc#\J	8a/J	.	.
.	4b/	4g#/	.	.
.	4a/	4a/	4a\	Ad
.	4r	4r	4r	.
!	!LO:LB:g=original	!	!	!
=9	=9	=9	=9	=9
.	4g#/	4b\	4b\	te
.	16a/LL	16cc#\LL	(16cc#\LL	.
.	16g#/	16b\	16b\	.
.	16a/	16cc#\	16cc#\)	.
.	16f#/JJ	16a\JJ	16b\JJ	.
.	4g#/	8b\	8b,<\	Cor
.	.	4.ee\	8ee\	vo-
.	4r	.	4ee\	-lat
=10	=10	=10	=10	=10
.	4g#/	4b\	4b\	te
.	16a/LL	16cc#\LL	(16cc#\LL	ho-
.	16g#/	16b\	16b\	.
.	16a/	16cc#\	16cc#\)	.
.	16f#/JJ	16a\JJ	16b\JJ	.
.	4g#/	8b\	8b\	-no-
.	.	4.ee\	16ee\LL	.
!	!	!	!LO:TX:a:t=P:problem=# above	!
.	.	.	16dd#X\JJ	.
.	4r	.	4ee\	-rat
=11	=11	=11	=11	=11
00r	4g#/	4b\	4ryy	.
.	16a/LL	16cc#\LL	(16cc#\LL	ſan-
.	16g#/	16b\	16b\JJ)	-cte
.	16a/	16cc#\	(16cc#\LL	Pa-
.	16f#/JJ	16a\JJ	16a\JJ)	.
.	4g#/	8b\L	8b\	-tro-
.	.	16ee\L	8ee\	-ne
!	!	!LO:TX:a:t=P:problem=# above	!	!
.	.	16dd#X\JJ	.	.
.	8r	8ee\L	8dd#X\	ca-
.	8a/	8ff#\J	(16ee\LL	-lo-
.	.	.	16ff#\JJ)	.
!	!	!	!LO:LB:g=original	!
=12	=12	=12	=12	=12
.	4g#/	4b\	(4b\	-da-
!	!	!LO:SIC:v:s=4dd#	!	!
.	4f#/	4dd\	4dd#X\)	.
.	4e/	4ee\	4ee\	-te
.	4r	4r	4r	.
=13	=13	=13	=13	=13
.	4cc#\	4ee\	4ee\	te
.	16dd\LL	16ff#\LL	16ff#\LL	a-
.	16cc#\	16ee\	16gg#\	.
.	16dd\	16ff#\	16ff#\	.
.	16cc#\JJ	16dd\JJ	16gg#\JJ	.
.	8b\	8dd\	8dd\	-do-
.	4.dd\	4.ff#\	4.ff#\	-rat
=14	=14	=14	=14	=14
.	4b\	4dd\	4dd\	te
.	16cc#\LL	16ee\LL	16ee\LL	im-
.	16b\	16dd\	16dd\	.
.	16cc#\	16ee\	16ee\	.
.	16b\JJ	16cc#\JJ	16dd\JJ	.
.	8a/	8cc#\	8cc#\	-plo-
.	4.cc#\	4.ee\	4.ee\	-rat
=15	=15	=15	=15	=15
00r	4b/	4cc#\	4cc#\	ſan-
.	16b/LL	16b\LL	(16dd\LL	-cte
.	16a/	16cc#\	16cc#\JJ)	.
.	16b/	16dd\	(16dd\LL	Pa-
.	16a/JJ	16cc#\JJ	16cc#\JJ)	.
!	!	!LO:LB:g=original	!	!
.	8g#/L	8b/L	8b\	-tro-
.	8e/	16a/L	16a\LL	-ne
.	.	16g#/JJ	16g#\JJ	.
.	8g#/	8a/L	8a\	Ca-
.	8b/J	8b/J	8b\	-lo-
*	*custos	*	*	*
!	!LO:LB:g=original	!	!	!
=16	=16	=16	=16	=16
.	4e/	4e/	(4e/	-da-
.	4g#/	4g#/	4g#/	.
.	4a/	4a/	4a\)	-te
.	4r	4r	4r	.
!	!	!	!LO:LB:g=original	!
=17	=17	=17	=17	=17
.	4cc#\	4ee\	4ee\	te
.	16dd\LL	16ff#\LL	16ff#\LL	a-
.	16cc#\	16ee\	16ee\	.
.	16dd\	16ff#\	16ff#\	.
.	16cc#\JJ	16ee\JJ	16ee\JJ	.
.	8b\	8dd\	8dd\	-do-
.	4.dd\	4.ff#\	4.ff#\	-rat
=18	=18	=18	=18	=18
.	4b\	4dd\	4dd\	te
.	16cc#\LL	16ee\LL	16ee\LL	im-
.	16b\	16dd\	16dd\	.
.	16cc#\	16ee\	16ee\	.
.	16b\JJ	16dd\JJ	16dd\JJ	.
.	8a/	8cc#\	8cc#\	-plo-
.	4.cc#\	4.ee\	4.ee\	-rat
=19	=19	=19	=19	=19
00r	4a/	4cc#\	8cc#\	San-
.	.	.	16dd\LL	-cte
.	.	.	16cc#\JJ	.
.	16b/LL	16dd\LL	16dd\LL	Pa-
.	16a/	16cc#\	16cc#\JJ	.
.	16b/	16dd\	8b\	-tro-
.	16a/JJ	16cc#\JJ	.	.
.	8g#/L	8b/L	8a\L	-ne
.	8e/J	16a/L	8g#\J	.
.	.	16g#/JJ	.	.
.	8a/L	8a/L	8a\	Ca-
.	8b/J	8b/J	8b\	-lo-
=20	=20	=20	=20	=20
.	4e/	4e/	(<4e/	-da-
.	4g#/	4g#/	4g#/	.
.	4a/	4a/	4a\)	-te
.	4r	4r	4r	.
=21	=21	=21	=21	=21
.	4a/	4cc#\	4cc#\	San-
.	16b/LL	16dd\LL	16dd\LL	-cte
.	16a/	16cc#\	16cc#,<\JJ	.
.	16b/	16dd\	16dd\LL	Pa-
.	16a/JJ	16cc#\JJ	16cc#\JJ	.
.	8g#/L	8b/L	8b\	-tro-
!	!	!	!LO:LB:g=original	!
.	8e/	16a/L	16a\LL	-ne
.	.	16g#/JJ	16g#\JJ	.
.	8a/	8a/L	8a\	Ca-
.	8b/J	8b/J	8b\	lo-
=22	=22	=22	=22	=22
.	4e/	4e/	(<4e/	-da-
.	4g#/	4g#/	4g#/	.
.	4a/	4a/	4a\)	-te
!	!	!LO:TX:a:t=P:problem=po tym takcie wykreślony takt	!	!
.	4r	4r	4r	.
!	!	!LO:LB:g=original	!	!
=23	=23	=23	=23	=23
4A\	4cc#\	4ee\	00r	.
4d\	16dd\LL	16ff#\LL	.	.
.	16cc#\	16ee\	.	.
.	16dd\	16ff#\	.	.
.	16b\JJ	16ee\JJ	.	.
*	*custos:cc	*	*	*
!	!LO:LB:g=original	!	!	!
4A\	4cc#\	8ee\L	.	.
.	.	8a\J	.	.
8r	8r	8r	.	.
8AA/	8e/	8cc#\	.	.
=24	=24	=24	=24	=24
4D\	4d/	8b/L	.	.
.	.	8a/J	.	.
4E\	8c#/L	4g#/	.	.
.	8B/J	.	.	.
4AA/	4c#/	4a/	.	.
4r	4r	4r	.	.
!LO:LB:g=original	!	!	!	!
=25	=25	=25	=25	=25
4E\	4g#/	4b\	.	.
4A\	4a/	16cc#\LL	.	.
.	.	16b\	.	.
.	.	16cc#\	.	.
.	.	16a\JJ	.	.
4E\	4g#/	8b\	.	.
.	.	4.ee\	.	.
4r	4r	.	.	.
=26	=26	=26	=26	=26
4E\	4g#/	4b\	.	.
4A\	4a/	16cc#\LL	.	.
.	.	16b\	.	.
.	.	16cc#\	.	.
.	.	16a\JJ	.	.
4E\	4g#/	8b\	.	.
.	.	4.ee\	.	.
4r	4r	.	.	.
=27	=27	=27	=27	=27
4E\	4g#/	4b\	00r	.
4A\	4a/	16cc#\LL	.	.
.	.	16b\	.	.
.	.	16cc#\	.	.
.	.	16a\JJ	.	.
4E\	4g#/	8b\L	.	.
.	.	16ee\L	.	.
.	.	16dd#X\JJ	.	.
8r	4r	8ee\L	.	.
8A\	.	8ff#\J	.	.
=28	=28	=28	=28	=28
4B\	4g#/	4b\	.	.
!	!	!LO:TX:a:t=P:problem=# above	!	!
4BB/	4f#/	4dd#X\	.	.
4E\	4e/	4ee\	.	.
4r	4r	4r	.	.
=29	=29	=29	=29	=29
4c#\	4a/	4ee\	.	.
16d\LL	4r	16ff#\LL	.	.
16c#\	.	16ee\	.	.
16d\	.	16ff#\	.	.
16c#\JJ	.	16dd\JJ	.	.
8B\	4a/	8dd\	.	.
4.d\	.	4.ff#\	.	.
.	4r	.	.	.
!	!	!LO:LB:g=original	!	!
=30	=30	=30	=30	=30
4B\	4b/	4dd\	.	.
16c#\LL	4r	16ee\LL	.	.
16B\	.	16dd\	.	.
16c#\	.	16ee\	.	.
16B\JJ	.	16dd\JJ	.	.
8A\	4e/	8cc#\	.	.
4.c#\	.	4.ee\	.	.
.	4r	.	.	.
=31	=31	=31	=31	=31
4A\	4e/	4cc#\	0r;;	.
16B\LL	4r	16dd\LL	.	.
16A\	.	16cc#\	.	.
16B\	.	16dd\	.	.
16A\JJ	.	16cc#\JJ	.	.
8G#\L	4e/	8b\L	.	.
8E\	.	16a\L	.	.
.	.	16g#\JJ	.	.
8G#\	8r	8a/L	.	.
8D\J	8d/	8b/J	.	.
=32	=32	=32	=32	=32
4E\	4c#/	4e/	.	.
4EE/	4B/	4g#/	.	.
4AA/;;	4A/	4a/	.	.
4r	4r;;	4r	.	.
!LO:LB:g=original	!LO:LB:g=original	!	!	!
=33	=33	=33;;	=33	=33
*>B	*>B	*>B	*>B	*
00r	4a/	4cc#\	4cc#\	ab
.	16b/LL	16dd\LL	16dd\LL	ho-
.	16a/	16cc#\	16cc#\JJ	.
.	16b/	16dd\	16dd\LL	-cin
.	16a/JJ	16cc#\JJ	16cc#\JJ	.
.	8g#/	8b\	8b\	ten-
.	4.b/	4.dd\	4.dd\	-de
=34	=34	=34	=34	=34
.	4g#/	4b\	4g#\	a
.	16a/LL	16cc#\LL	16a\LL	mun-
.	16g#/	16b\	16g#\JJ	.
.	16a/	16cc#\	16a\LL	-di
.	16g#/JJ	16b\JJ	16g#\JJ	.
.	8f#/	8a\	8a\	ma-
!	!	!	!LO:N:vis=4.	!
.	4.a/	4.cc#\	4cc#\	-lo
.	.	.	8cc#\	def-
=35	=35	=35	=35	=35
.	4f#/	4a/	4a\	-fen-
.	4e#X/	8g#/L	8g#/L	.
.	.	8f#/J	8f#/J	.
.	4f#/	4f#/	4f#/	-de
.	4r	4r	4r	.
!	!	!	!LO:LB:g=original	!
=36	=36	=36	=36	=36
.	4dd\	4ff#\	4ff#\	et
.	16ee\LL	16gg#\LL	16gg#\LL	con-
.	16dd\	16ff#\	16ff#\JJ	.
.	16ee\	16gg#\	16gg#\LL	-tra
.	16dd\JJ	16ff#\JJ	16ff#\JJ	.
.	8cc#\	8ee\	8ee\	hos-
.	4.ee\	4.gg#\	4.gg#\	-tes
!	!	!LO:LB:g=original	!	!
=37	=37	=37	=37	=37
0r	4cc#\	4ee\	4ee\	ma-
.	16dd\LL	16ff#\LL	16ff#\LL	-num
.	16cc#\	16ee\	16ee\	.
.	16dd\	16ff#\	16ff#\	.
.	16cc#\JJ	16ee\JJ	16ee\JJ	.
.	8b\	8dd\	8dd\	tu-
.	4.dd\	4.ff#\	4.ff#\	-am
=38	=38	=38	=38	=38
.	4b/	4dd\	4dd\	ex-
.	4a#X/	8cc#\L	(8cc#\L	-ten-
.	.	8b\J	8b\J)	-de
.	4b/	4b\	4r	.
.	4r	4r	4ryy	.
=39	=39	=39	=39	=39
1r	4f#/	4f#/	4f#/	ex-
.	8b/L	8b/L	8b\L	-ten-
.	8a#X/J	8a#X/J	8a#X\J	.
.	4b\	4b/	4b\	-de
!LO:TX:b:i:t=Da capo	!LO:TX:b:t=Da Ca\npo	!LO:TX:b:i:t=Da Capo	!LO:TX:b:t=Da capo	!
.	4r	4r	4r	.
==:!|!:;;	==:!|!:;;	==:!|!:;	==:!|!:	==:!|!:
*-	*-	*-	*-	*-
!!!system-decoration: s1[g1]s4
!!!RDF**kern: < = below
!!!AIN: 1 empty 2 violn 1 vox
!!!ENC: Marta Lawrence
!!!END: 2020-12-04
!!!ENC: Andrzej Gręziak
!!!END: 2020-06-16
